src/images/AirtimeRewards/Logo/White.svg

<svg fill="none" height="70" viewBox="0 0 349 70" width="349" xmlns="http://www.w3.org/2000/svg" xmlns:xlink="http://www.w3.org/1999/xlink"><clipPath id="a"><path d="m4 17h340v35.8621h-340z"/></clipPath><g clip-path="url(#a)"><path d="m32.0496 35.6274c1.226.0007 2.4457-.1724 3.6224-.5139v-4.5873c-1.5935.7396-3.3776.9751-5.1104.6746-1.7329-.3005-3.3308-1.1225-4.5772-2.3545l3.0717-3.0489c-2.8069-2.7933-6.1423-5.0085-9.8145-6.5182-3.6722-1.5098-7.6088-2.2843-11.58359-2.2792-1.22266.0003-2.4442.0735-3.65801.2193v4.3387c3.9803-.5647 8.0384-.201 11.8524 1.0621 3.8141 1.2632 7.2791 3.391 10.1204 6.2149l.0114.011-3.0542 3.0317c-2.4447-2.4246-5.4395-4.2321-8.7332-5.271-3.2938-1.0388-6.7904-1.2787-10.1968-.6996v4.3806c2.82287-.6082 5.75452-.5017 8.525.3098 2.7705.8114 5.2908 2.3017 7.3288 4.3336l-.1286.1274-2.9481 2.9262c-1.6411-1.6279-3.6938-2.7866-5.9423-3.3543-2.24847-.5677-4.60954-.5234-6.8348.1282v4.5919c1.59505-.7497 3.38474-.9911 5.12351-.6911 1.73879.3 3.34139 1.1267 4.58809 2.3666l-.1415.1416-2.9184 2.8971c2.8069 2.7932 6.1422 5.0083 9.8143 6.5181 3.6721 1.5097 7.6085 2.2843 11.5831 2.2793 1.2108-.0003 2.4204-.0725 3.6224-.2162v-4.3382c-3.9784.5601-8.0335.194-11.8447-1.0695-3.8113-1.2635-7.2741-3.3898-10.1148-6.2106l.1427-.1416 2.9243-2.9025c2.0031 1.9936 4.3833 3.5746 7.004 4.6522 2.6206 1.0777 5.43 1.6307 8.2666 1.6272 1.2139-.0001 2.4256-.1013 3.6224-.3025v-4.3793c-2.818.6021-5.7431.4919-8.507-.3204-2.7638-.8122-5.2778-2.3006-7.3112-4.3285l3.076-3.0543c1.1963 1.1905 2.6178 2.1347 4.1829 2.7781 1.5651.6435 3.2429.9736 4.9369.9714z" fill="#00e8d1"/><g fill="#fff"><path d="m22.9297 31.8778c.8768.8705 1.8751 1.6115 2.9642 2.2001l3.2672-3.2429c-1.1947-.4203-2.2799-1.0998-3.1768-1.9888z" opacity=".25"/><path d="m13.7131 41.0276-3.0608 3.0371c.866.8592 1.7834 1.6659 2.7472 2.4155l3.0872-3.0645c-.98-.7302-1.9069-1.5282-2.7736-2.3881z" opacity=".25"/><path d="m19.8533 34.9312-3.076 3.0531c.8682.8615 1.8085 1.6484 2.8107 2.3522l3.1305-3.1069c-1.0341-.6636-1.9945-1.4341-2.8652-2.2984z" opacity=".25"/><path d="m210.187 26.7639c-.707-.3206-1.479-.474-2.256-.4484-1.956 0-3.611.8959-4.965 2.6878l-.225.224-.226-.224-.452-2.2397h-4.061v21.0538h4.513v-12.2736c.043-1.2775.595-2.4858 1.535-3.3599.449-.4472.984-.8004 1.573-1.0389s1.22-.3574 1.857-.3496h1.584z"/><path d="m75.8546 26.7639v21.0538h-4.0619l-.4513-1.792-.2256-.2242-.2256.2242c-1.5058 1.4934-3.4615 2.24-5.8672 2.2397-1.423.0266-2.8367-.2337-4.1555-.765-1.3187-.5314-2.5152-1.3228-3.5169-2.3264-2.1061-2.0609-3.1592-4.6889-3.1592-7.8839s1.0528-5.8228 3.1585-7.8834c1.0017-1.0036 2.1982-1.795 3.5169-2.3263 1.3188-.5314 2.7325-.7916 4.1555-.7651 2.4068 0 4.3625.7466 5.8672 2.2397l.2256.2242.2256-.2242.4517-1.7915zm-5.9123 15.4544c1.2339-1.3442 1.8969-3.1096 1.8504-4.9275.0467-1.8182-.6163-3.584-1.8504-4.9285-.5876-.6545-1.312-1.174-2.1226-1.5222-.8107-.3482-1.6881-.5167-2.5711-.4937-2.0763 0-3.6936.657-4.8517 1.9711-1.1582 1.3141-1.7373 2.9716-1.7375 4.9724 0 2.0008.5792 3.6581 1.7375 4.9721 1.1583 1.3139 2.7755 1.971 4.8517 1.9711.8829.0232 1.7603-.1451 2.5709-.4931.8107-.348 1.5351-.8673 2.1228-1.5217z"/><path d="m85.7392 26.7639h-4.4228v21.054h4.4228z"/><path d="m125.167 26.7639h-4.423v21.054h4.423z"/><path d="m147.326 29.8997 1.128-1.3451c.624-.7151 1.414-1.2686 2.302-1.6127.91-.4002 1.892-.6134 2.888-.627 2.437 0 4.325.6944 5.664 2.083 1.339 1.3887 2.008 3.2328 2.008 5.5324v13.8865h-4.513v-13.4377c0-2.6878-1.203-4.0317-3.61-4.0317-.636-.0076-1.268.1114-1.857.35-.589.2385-1.123.5917-1.573 1.0387-.939.8742-1.491 2.0824-1.534 3.3597v12.722h-4.514v-13.4387c0-2.6878-1.203-4.0317-3.61-4.0317-.637-.0077-1.268.1113-1.857.3498s-1.124.5918-1.573 1.0389c-.94.8742-1.492 2.0824-1.535 3.3597v12.722h-4.513v-21.0538h4.063l.452 1.7916.226.2242.225-.2242c.54-.7253 1.275-1.2844 2.121-1.6127.894-.4029 1.862-.6164 2.844-.627 3.248 0 5.504 1.1946 6.768 3.5838z"/><path d="m184.784 38.4106h-15.344c-.019.765.117 1.5261.4 2.238.283.7118.707 1.36 1.248 1.9058 1.097 1.12 2.579 1.6799 4.445 1.6797 1.168.0339 2.32-.2694 3.318-.8731.87-.5265 1.544-1.3209 1.918-2.2624l3.791 1.7918c-2.076 3.5837-5.16 5.3755-9.252 5.3757-1.376.0223-2.741-.2413-4.008-.7736-1.267-.5324-2.407-1.3219-3.349-2.3178-2.016-2.0609-3.024-4.6888-3.023-7.8838 0-3.2251.985-5.8606 2.956-7.9066s4.445-3.0685 7.424-3.0678c1.32-.0202 2.63.2367 3.843.754s2.303 1.2833 3.197 2.2477c1.925 2.0004 2.888 4.5833 2.888 7.7487zm-9.477-8.0633c-2.949 0-4.829 1.3738-5.641 4.1215h10.831c-.06-.5769-.239-1.1352-.526-1.6401s-.677-.9454-1.144-1.2941c-.997-.7927-2.243-1.2129-3.52-1.1873z"/><path d="m230.947 38.4106h-15.345c-.019.765.117 1.5261.4 2.238.283.7118.707 1.36 1.248 1.9058 1.098 1.12 2.58 1.6799 4.446 1.6797 1.167.0339 2.32-.2694 3.317-.8731.871-.5266 1.544-1.321 1.918-2.2624l3.791 1.7918c-2.076 3.5837-5.16 5.3755-9.252 5.3757-1.376.0223-2.741-.2413-4.008-.7736-1.266-.5324-2.407-1.3219-3.348-2.3178-2.017-2.0609-3.024-4.6888-3.024-7.8838 0-3.2251.985-5.8606 2.956-7.9066s4.445-3.0685 7.424-3.0678c1.32-.0202 2.63.2367 3.843.754s2.303 1.2833 3.197 2.2477c1.925 2.001 2.888 4.5842 2.888 7.7496zm-9.478-8.0633c-2.949 0-4.83 1.3738-5.642 4.1215h10.832c-.06-.5769-.239-1.1352-.526-1.6401-.288-.5049-.677-.9455-1.144-1.2941-.997-.7927-2.243-1.2129-3.52-1.1873z"/><path d="m240.424 41.7702 4.062-11.8699h4.513l4.062 11.8699 3.656-15.0063h4.468l-5.867 21.0538h-4.288l-4.288-12.1396-4.288 12.1396h-4.286l-5.867-21.0538h4.468z"/><path d="m284.201 26.7639v21.0538h-4.062l-.452-1.7916-.226-.2242-.225.2242c-1.506 1.4935-3.462 2.24-5.868 2.2397-1.423.0267-2.836-.2336-4.155-.7649-1.319-.5314-2.515-1.3228-3.517-2.3264-2.106-2.0609-3.159-4.6889-3.159-7.8839 0-3.1951 1.053-5.8231 3.159-7.8842 1.002-1.0035 2.198-1.7949 3.517-2.3263 1.319-.5313 2.732-.7916 4.155-.765 2.407 0 4.363.7465 5.868 2.2397l.225.2242.226-.2242.452-1.7916zm-5.913 15.4544c1.234-1.3442 1.897-3.1096 1.851-4.9275.046-1.8178-.617-3.5832-1.851-4.9275-.587-.6546-1.312-1.1741-2.122-1.5223-.811-.3482-1.688-.5167-2.571-.4937-2.077 0-3.694.657-4.852 1.9711s-1.737 2.9716-1.738 4.9724c0 2.0008.58 3.6582 1.738 4.9721 1.159 1.314 2.776 1.971 4.852 1.9712.883.023 1.76-.1455 2.571-.4936.81-.3482 1.535-.8676 2.122-1.5222z"/><path d="m324.368 17.8047v30.013h-4.061l-.452-1.7915-.226-.2242-.225.2242c-1.505 1.4934-3.461 2.24-5.868 2.2397-1.423.0266-2.836-.2337-4.155-.765-1.319-.5314-2.515-1.3228-3.517-2.3264-2.106-2.0609-3.159-4.6889-3.159-7.8839s1.053-5.8231 3.159-7.8841c1.002-1.0036 2.198-1.795 3.517-2.3263 1.319-.5314 2.732-.7917 4.155-.7651 2.407 0 4.363.7466 5.868 2.2397l.225.2242.226-.2242v-10.7501zm-5.912 24.4137c1.234-1.3443 1.897-3.1097 1.851-4.9276.046-1.8178-.617-3.5832-1.851-4.9275-.587-.6545-1.312-1.174-2.122-1.5222-.811-.3482-1.688-.5167-2.571-.4938-2.077 0-3.694.6571-4.852 1.9712s-1.737 2.9715-1.738 4.9723c0 2.0008.58 3.6582 1.738 4.9722 1.158 1.3139 2.775 1.971 4.852 1.9711.883.023 1.76-.1455 2.571-.4936.81-.3482 1.535-.8676 2.122-1.5221z"/><path d="m341.766 46.3619c-1.49 1.2696-3.303 1.9042-5.438 1.9039-2.136-.0003-3.949-.5678-5.438-1.7024-1.488-1.1307-2.52-2.7508-2.911-4.5691l4.061-1.5678c.091 1.0759.591 2.0772 1.399 2.7997.785.7214 1.819 1.1145 2.889 1.0975 1.083 0 1.918-.2464 2.504-.7391.277-.2159.5-.4916.652-.806.153-.3145.231-.6595.228-1.0084 0-1.2242-.903-1.9856-2.708-2.2843-.602-.1193-1.354-.2836-2.256-.493-1.866-.4773-3.348-1.2612-4.446-2.3518-.539-.5282-.963-1.1604-1.247-1.8576-.283-.6973-.42-1.4447-.401-2.1963-.027-.8864.165-1.766.558-2.5622.393-.7963.976-1.4852 1.699-2.0069 1.488-1.1297 3.317-1.7294 5.19-1.7024 1.868-.03 3.687.5876 5.145 1.7463.711.5427 1.301 1.2242 1.736 2.0024.435.7781.704 1.6365.792 2.5221h-4.514c-.002-.3286-.086-.6515-.243-.9404-.158-.289-.384-.5352-.66-.7172-.67-.4382-1.454-.6718-2.257-.6718-.802 0-1.586.2336-2.256.6718-.276.1819-.503.4281-.66.7171-.158.289-.241.6119-.244.9405 0 1.2541.903 2.0604 2.708 2.4188l2.257.4483c1.865.4184 3.347 1.1499 4.446 2.1947 1.099 1.0447 1.648 2.4185 1.647 4.1211.001 1.7926-.743 3.3234-2.232 4.5925z"/><path d="m96.1637 29.0036-.2257.224-.2256-.224-.4517-2.2397h-4.0615v21.0538h4.5132v-12.2739c.0431-1.2774.5949-2.4857 1.5344-3.3599.4493-.4471.9842-.8003 1.5733-1.0388s1.2199-.3574 1.8569-.3497h.451v-4.0315c-2.4406 0-4.2078 1.4702-4.8845 2.1389-.0266.034-.0537.0661-.0798.1008z"/><path d="m85.7392 20.1646h-4.4228v4.3899h4.4228z"/><path d="m125.167 20.1646h-4.423v4.3899h4.423z"/><path d="m113.93 43.786c-.307.0139-.613-.0346-.9-.1424s-.549-.2727-.77-.4846c-.211-.2118-.375-.4641-.484-.7415-.109-.2773-.159-.5738-.148-.8712v-10.7508h4.558v-4.0315h-4.557v-6.5994h-.858l-3.566 3.5397v3.0606h-2.918v4.0306h2.918v10.7508c0 2.0314.595 3.5843 1.783 4.6588 1.189 1.0745 2.912 1.612 5.168 1.6127l2.482-.4484v-4.031z"/><path d="m301.803 26.7639c-.707-.3206-1.48-.474-2.256-.4484-1.957 0-3.612.8959-4.965 2.6878l-.226.224-.225-.224-.452-2.2397h-4.062v21.0538h4.513v-12.2736c.043-1.2775.595-2.4858 1.535-3.3599.449-.4472.984-.8004 1.573-1.0389s1.221-.3574 1.857-.3496h1.584z"/></g></g></svg>

<svg width="349" height="70" viewBox="0 0 349 70" fill="none" xmlns="http://www.w3.org/2000/svg">
<g clip-path="url(#clip0_326_1252)">
<path d="M32.0496 35.6274C33.2756 35.6281 34.4953 35.455 35.672 35.1135V30.5262C34.0785 31.2658 32.2944 31.5013 30.5616 31.2008C28.8287 30.9003 27.2308 30.0783 25.9844 28.8463L29.0561 25.7974C26.2492 23.0041 22.9138 20.7889 19.2416 19.2792C15.5694 17.7694 11.6328 16.9949 7.65801 17C6.43535 17.0003 5.21381 17.0735 4 17.2193L4 21.558C7.9803 20.9933 12.0384 21.357 15.8524 22.6201C19.6665 23.8833 23.1315 26.0111 25.9728 28.835L25.9842 28.846L22.93 31.8777C20.4853 29.4531 17.4905 27.6456 14.1968 26.6067C10.903 25.5679 7.4064 25.328 4 25.9071L4 30.2877C6.82287 29.6795 9.75452 29.786 12.525 30.5975C15.2955 31.4089 17.8158 32.8992 19.8538 34.9311L19.7252 35.0585L16.7771 37.9847C15.136 36.3568 13.0833 35.1981 10.8348 34.6304C8.58633 34.0627 6.22526 34.107 4 34.7586L4 39.3505C5.59505 38.6008 7.38474 38.3594 9.12351 38.6594C10.8623 38.9594 12.4649 39.7861 13.7116 41.026L13.5701 41.1676L10.6517 44.0647C13.4586 46.8579 16.7939 49.073 20.466 50.5828C24.1381 52.0925 28.0745 52.8671 32.0491 52.8621C33.2599 52.8618 34.4695 52.7896 35.6715 52.6459V48.3077C31.6931 48.8678 27.638 48.5017 23.8268 47.2382C20.0155 45.9747 16.5527 43.8484 13.712 41.0276L13.8547 40.886L16.779 37.9835C18.7821 39.9771 21.1623 41.5581 23.783 42.6357C26.4036 43.7134 29.213 44.2664 32.0496 44.2629C33.2635 44.2628 34.4752 44.1616 35.672 43.9604V39.5811C32.854 40.1832 29.9289 40.073 27.165 39.2607C24.4012 38.4485 21.8872 36.9601 19.8538 34.9322L22.9298 31.8779C24.1261 33.0684 25.5476 34.0126 27.1127 34.656C28.6778 35.2995 30.3556 35.6296 32.0496 35.6274Z" fill="#00E8D1"/>
<g style="mix-blend-mode:darken" opacity="0.25">
<path d="M22.9297 31.8778C23.8065 32.7483 24.8048 33.4893 25.8939 34.0779L29.1611 30.835C27.9664 30.4147 26.8812 29.7352 25.9843 28.8462L22.9297 31.8778Z" fill="white"/>
</g>
<g style="mix-blend-mode:darken" opacity="0.25">
<path d="M13.7131 41.0276L10.6523 44.0647C11.5183 44.9239 12.4357 45.7306 13.3995 46.4802L16.4867 43.4157C15.5067 42.6855 14.5798 41.8875 13.7131 41.0276Z" fill="white"/>
</g>
<g style="mix-blend-mode:darken" opacity="0.25">
<path d="M19.8533 34.9312L16.7773 37.9843C17.6455 38.8458 18.5858 39.6327 19.588 40.3365L22.7185 37.2296C21.6844 36.566 20.724 35.7955 19.8533 34.9312Z" fill="white"/>
</g>
<path d="M210.187 26.7639C209.48 26.4433 208.708 26.2899 207.931 26.3155C205.975 26.3155 204.32 27.2114 202.966 29.0033L202.741 29.2273L202.515 29.0033L202.063 26.7636H198.002V47.8174H202.515V35.5438C202.558 34.2663 203.11 33.058 204.05 32.1839C204.499 31.7367 205.034 31.3835 205.623 31.145C206.212 30.9065 206.843 30.7876 207.48 30.7954H209.064L210.187 26.7639Z" fill="white"/>
<path d="M75.8546 26.7639V47.8177H71.7927L71.3414 46.0257L71.1158 45.8015L70.8902 46.0257C69.3844 47.5191 67.4287 48.2657 65.023 48.2654C63.6 48.292 62.1863 48.0317 60.8675 47.5004C59.5488 46.969 58.3523 46.1776 57.3506 45.174C55.2445 43.1131 54.1914 40.4851 54.1914 37.2901C54.1914 34.0951 55.2442 31.4673 57.3499 29.4067C58.3516 28.4031 59.5481 27.6117 60.8668 27.0804C62.1856 26.549 63.5993 26.2888 65.0223 26.3153C67.4291 26.3153 69.3848 27.0619 70.8895 28.555L71.1151 28.7792L71.3407 28.555L71.7924 26.7635L75.8546 26.7639ZM69.9423 42.2183C71.1762 40.8741 71.8392 39.1087 71.7927 37.2908C71.8394 35.4726 71.1764 33.7068 69.9423 32.3623C69.3547 31.7078 68.6303 31.1883 67.8197 30.8401C67.009 30.4919 66.1316 30.3234 65.2486 30.3464C63.1723 30.3464 61.555 31.0034 60.3969 32.3175C59.2387 33.6316 58.6596 35.2891 58.6594 37.2899C58.6594 39.2907 59.2386 40.948 60.3969 42.262C61.5552 43.5759 63.1724 44.233 65.2486 44.2331C66.1315 44.2563 67.0089 44.088 67.8195 43.74C68.6302 43.392 69.3546 42.8727 69.9423 42.2183Z" fill="white"/>
<path d="M85.7392 26.7639H81.3164V47.8179H85.7392V26.7639Z" fill="white"/>
<path d="M125.167 26.7639H120.744V47.8179H125.167V26.7639Z" fill="white"/>
<path d="M147.326 29.8997L148.454 28.5546C149.078 27.8395 149.868 27.286 150.756 26.9419C151.666 26.5417 152.648 26.3285 153.644 26.3149C156.081 26.3149 157.969 27.0093 159.308 28.3979C160.647 29.7866 161.316 31.6307 161.316 33.9303V47.8168H156.803V34.3791C156.803 31.6913 155.6 30.3474 153.193 30.3474C152.557 30.3398 151.925 30.4588 151.336 30.6974C150.747 30.9359 150.213 31.2891 149.763 31.7361C148.824 32.6103 148.272 33.8185 148.229 35.0958V47.8178H143.715V34.3791C143.715 31.6913 142.512 30.3474 140.105 30.3474C139.468 30.3397 138.837 30.4587 138.248 30.6972C137.659 30.9357 137.124 31.289 136.675 31.7361C135.735 32.6103 135.183 33.8185 135.14 35.0958V47.8178H130.627V26.764H134.69L135.142 28.5556L135.368 28.7798L135.593 28.5556C136.133 27.8303 136.868 27.2712 137.714 26.9429C138.608 26.54 139.576 26.3265 140.558 26.3159C143.806 26.3159 146.062 27.5105 147.326 29.8997Z" fill="white"/>
<path d="M184.784 38.4106H169.44C169.421 39.1756 169.557 39.9367 169.84 40.6486C170.123 41.3604 170.547 42.0086 171.088 42.5544C172.185 43.6744 173.667 44.2343 175.533 44.2341C176.701 44.268 177.853 43.9647 178.851 43.361C179.721 42.8345 180.395 42.0401 180.769 41.0986L184.56 42.8904C182.484 46.4741 179.4 48.2659 175.308 48.2661C173.932 48.2884 172.567 48.0248 171.3 47.4925C170.033 46.9601 168.893 46.1706 167.951 45.1747C165.935 43.1138 164.927 40.4859 164.928 37.2909C164.928 34.0658 165.913 31.4303 167.884 29.3843C169.855 27.3383 172.329 26.3158 175.308 26.3165C176.628 26.2963 177.938 26.5532 179.151 27.0705C180.364 27.5878 181.454 28.3538 182.348 29.3182C184.273 31.3186 185.236 33.9015 185.236 37.0669L184.784 38.4106ZM175.307 30.3473C172.358 30.3473 170.478 31.7211 169.666 34.4688H180.497C180.437 33.8919 180.258 33.3336 179.971 32.8287C179.684 32.3238 179.294 31.8833 178.827 31.5346C177.83 30.7419 176.584 30.3217 175.307 30.3473Z" fill="white"/>
<path d="M230.947 38.4106H215.602C215.583 39.1756 215.719 39.9367 216.002 40.6486C216.285 41.3604 216.709 42.0086 217.25 42.5544C218.348 43.6744 219.83 44.2343 221.696 44.2341C222.863 44.268 224.016 43.9647 225.013 43.361C225.884 42.8344 226.557 42.04 226.931 41.0986L230.722 42.8904C228.646 46.4741 225.562 48.2659 221.47 48.2661C220.094 48.2884 218.729 48.0248 217.462 47.4925C216.196 46.9601 215.055 46.1706 214.114 45.1747C212.097 43.1138 211.09 40.4859 211.09 37.2909C211.09 34.0658 212.075 31.4303 214.046 29.3843C216.017 27.3383 218.491 26.3158 221.47 26.3165C222.79 26.2963 224.1 26.5532 225.313 27.0705C226.526 27.5878 227.616 28.3538 228.51 29.3182C230.435 31.3192 231.398 33.9024 231.398 37.0678L230.947 38.4106ZM221.469 30.3473C218.52 30.3473 216.639 31.7211 215.827 34.4688H226.659C226.599 33.8919 226.42 33.3336 226.133 32.8287C225.845 32.3238 225.456 31.8832 224.989 31.5346C223.992 30.7419 222.746 30.3217 221.469 30.3473Z" fill="white"/>
<path d="M240.424 41.7702L244.486 29.9003H248.999L253.061 41.7702L256.717 26.7639H261.185L255.318 47.8177H251.03L246.742 35.6781L242.454 47.8177H238.168L232.301 26.7639H236.769L240.424 41.7702Z" fill="white"/>
<path d="M284.201 26.7639V47.8177H280.139L279.687 46.0261L279.461 45.8019L279.236 46.0261C277.73 47.5196 275.774 48.2661 273.368 48.2658C271.945 48.2925 270.532 48.0322 269.213 47.5009C267.894 46.9695 266.698 46.1781 265.696 45.1745C263.59 43.1136 262.537 40.4856 262.537 37.2906C262.537 34.0955 263.59 31.4675 265.696 29.4064C266.698 28.4029 267.894 27.6115 269.213 27.0801C270.532 26.5488 271.945 26.2885 273.368 26.3151C275.775 26.3151 277.731 27.0616 279.236 28.5548L279.461 28.779L279.687 28.5548L280.139 26.7632L284.201 26.7639ZM278.288 42.2183C279.522 40.8741 280.185 39.1087 280.139 37.2908C280.185 35.473 279.522 33.7076 278.288 32.3633C277.701 31.7087 276.976 31.1892 276.166 30.841C275.355 30.4928 274.478 30.3243 273.595 30.3473C271.518 30.3473 269.901 31.0043 268.743 32.3184C267.585 33.6325 267.006 35.29 267.005 37.2908C267.005 39.2916 267.585 40.949 268.743 42.2629C269.902 43.5769 271.519 44.2339 273.595 44.2341C274.478 44.2571 275.355 44.0886 276.166 43.7405C276.976 43.3923 277.701 42.8729 278.288 42.2183Z" fill="white"/>
<path d="M324.368 17.8047V47.8177H320.307L319.855 46.0262L319.629 45.802L319.404 46.0262C317.899 47.5196 315.943 48.2662 313.536 48.2659C312.113 48.2925 310.7 48.0322 309.381 47.5009C308.062 46.9695 306.866 46.1781 305.864 45.1745C303.758 43.1136 302.705 40.4856 302.705 37.2906C302.705 34.0956 303.758 31.4675 305.864 29.4065C306.866 28.4029 308.062 27.6115 309.381 27.0802C310.7 26.5488 312.113 26.2885 313.536 26.3151C315.943 26.3151 317.899 27.0617 319.404 28.5548L319.629 28.779L319.855 28.5548V17.8047H324.368ZM318.456 42.2184C319.69 40.8741 320.353 39.1087 320.307 37.2908C320.353 35.473 319.69 33.7076 318.456 32.3633C317.869 31.7088 317.144 31.1893 316.334 30.8411C315.523 30.4929 314.646 30.3244 313.763 30.3473C311.686 30.3473 310.069 31.0044 308.911 32.3185C307.753 33.6326 307.174 35.29 307.173 37.2908C307.173 39.2916 307.753 40.949 308.911 42.263C310.069 43.5769 311.686 44.234 313.763 44.2341C314.646 44.2571 315.523 44.0886 316.334 43.7405C317.144 43.3923 317.869 42.8729 318.456 42.2184Z" fill="white"/>
<path d="M341.766 46.3619C340.276 47.6315 338.463 48.2661 336.328 48.2658C334.192 48.2655 332.379 47.698 330.89 46.5634C329.402 45.4327 328.37 43.8126 327.979 41.9943L332.04 40.4265C332.131 41.5024 332.631 42.5037 333.439 43.2262C334.224 43.9476 335.258 44.3407 336.328 44.3237C337.411 44.3237 338.246 44.0773 338.832 43.5846C339.109 43.3687 339.332 43.093 339.484 42.7786C339.637 42.4641 339.715 42.1191 339.712 41.7702C339.712 40.546 338.809 39.7846 337.004 39.4859C336.402 39.3666 335.65 39.2023 334.748 38.9929C332.882 38.5156 331.4 37.7317 330.302 36.6411C329.763 36.1129 329.339 35.4807 329.055 34.7835C328.772 34.0862 328.635 33.3388 328.654 32.5872C328.627 31.7008 328.819 30.8212 329.212 30.025C329.605 29.2287 330.188 28.5398 330.911 28.0181C332.399 26.8884 334.228 26.2887 336.101 26.3157C337.969 26.2857 339.788 26.9033 341.246 28.062C341.957 28.6047 342.547 29.2862 342.982 30.0644C343.417 30.8425 343.686 31.7009 343.774 32.5865H339.26C339.258 32.2579 339.174 31.935 339.017 31.6461C338.859 31.3571 338.633 31.1109 338.357 30.9289C337.687 30.4907 336.903 30.2571 336.1 30.2571C335.298 30.2571 334.514 30.4907 333.844 30.9289C333.568 31.1108 333.341 31.357 333.184 31.646C333.026 31.935 332.943 32.2579 332.94 32.5865C332.94 33.8406 333.843 34.6469 335.648 35.0053L337.905 35.4536C339.77 35.872 341.252 36.6035 342.351 37.6483C343.45 38.693 343.999 40.0668 343.998 41.7694C343.999 43.562 343.255 45.0928 341.766 46.3619Z" fill="white"/>
<path d="M96.1637 29.0036L95.938 29.2276L95.7124 29.0036L95.2607 26.7639H91.1992V47.8177H95.7124V35.5438C95.7555 34.2664 96.3073 33.0581 97.2468 32.1839C97.6961 31.7368 98.231 31.3836 98.8201 31.1451C99.4092 30.9066 100.04 30.7877 100.677 30.7954H101.128V26.7639C98.6874 26.7639 96.9202 28.2341 96.2435 28.9028C96.2169 28.9368 96.1898 28.9689 96.1637 29.0036Z" fill="white"/>
<path d="M85.7392 20.1646H81.3164V24.5545H85.7392V20.1646Z" fill="white"/>
<path d="M125.167 20.1646H120.744V24.5545H125.167V20.1646Z" fill="white"/>
<path d="M113.93 43.786C113.623 43.7999 113.317 43.7514 113.03 43.6436C112.743 43.5358 112.481 43.3709 112.26 43.159C112.049 42.9472 111.885 42.6949 111.776 42.4175C111.667 42.1402 111.617 41.8437 111.628 41.5463V30.7955H116.186V26.764H111.629V20.1646H110.771L107.205 23.7043V26.7649H104.287V30.7955H107.205V41.5463C107.205 43.5777 107.8 45.1306 108.988 46.2051C110.177 47.2796 111.9 47.8171 114.156 47.8178L116.638 47.3694V43.3384L113.93 43.786Z" fill="white"/>
<path d="M301.803 26.7639C301.096 26.4433 300.323 26.2899 299.547 26.3155C297.59 26.3155 295.935 27.2114 294.582 29.0033L294.356 29.2273L294.131 29.0033L293.679 26.7636H289.617V47.8174H294.13V35.5438C294.173 34.2663 294.725 33.058 295.665 32.1839C296.114 31.7367 296.649 31.3835 297.238 31.145C297.827 30.9065 298.459 30.7876 299.095 30.7954H300.679L301.803 26.7639Z" fill="white"/>
</g>
<defs>
<clipPath id="clip0_326_1252">
<rect width="340" height="35.8621" fill="white" transform="translate(4 17)"/>
</clipPath>
</defs>
</svg>
